svg/pail.svg

<svg xmlns="http://www.w3.org/2000/svg" viewBox="0 0 24 24"><path d="M11.5 7.63a.976.976 0 0 1 1.36.37c.28.47.11 1.09-.36 1.36l-8.23 4.75a.998.998 0 1 1-1-1.73zM7 21l-1.21-6.03 7.42-4.28c.79-.43 1.29-1.25 1.29-2.19a2.5 2.5 0 0 0-3.79-2.14L4.76 9.79 4 6H3V4h18v2h-1l-3 15z"/></svg>

<?xml version="1.0" encoding="UTF-8"?><!DOCTYPE svg PUBLIC "-//W3C//DTD SVG 1.1//EN" "http://www.w3.org/Graphics/SVG/1.1/DTD/svg11.dtd"><svg xmlns="http://www.w3.org/2000/svg" xmlns:xlink="http://www.w3.org/1999/xlink" version="1.1" id="mdi-pail" width="24" height="24" viewBox="0 0 24 24"><path d="M11.5 7.63C11.97 7.35 12.58 7.5 12.86 8C13.14 8.47 12.97 9.09 12.5 9.36L4.27 14.11C3.79 14.39 3.18 14.23 2.9 13.75C2.62 13.27 2.79 12.66 3.27 12.38L11.5 7.63M7 21L5.79 14.97L13.21 10.69C14 10.26 14.5 9.44 14.5 8.5C14.5 7.12 13.38 6 12 6C11.53 6 11.09 6.13 10.71 6.36L4.76 9.79L4 6H3V4H21V6H20L17 21H7Z" /></svg>
